icons/git/git-plain.svg

<svg xmlns="http://www.w3.org/2000/svg" viewBox="0 0 128 128"><path fill="#F34F29" d="M124.742 58.378l-55.117-55.114c-3.172-3.174-8.32-3.174-11.497 0l-11.443 11.446 14.518 14.518c3.375-1.139 7.243-.375 9.932 2.314 2.703 2.706 3.462 6.607 2.293 9.993l13.992 13.994c3.385-1.167 7.292-.413 9.994 2.295 3.78 3.777 3.78 9.9 0 13.679-3.78 3.78-9.901 3.78-13.683 0-2.842-2.844-3.545-7.019-2.105-10.521l-13.048-13.049-.002 34.341c.922.455 1.791 1.063 2.559 1.828 3.779 3.777 3.779 9.898 0 13.683-3.779 3.777-9.904 3.777-13.679 0-3.778-3.784-4.088-9.905-.311-13.683.934-.933 1.855-1.638 2.855-2.11v-34.659c-1-.472-1.92-1.172-2.856-2.111-2.861-2.86-3.396-7.06-1.928-10.576l-14.233-14.313-37.754 37.79c-3.175 3.177-3.155 8.325.02 11.5l55.126 55.114c3.173 3.174 8.325 3.174 11.503 0l54.86-54.858c3.175-3.176 3.178-8.327.004-11.501z"/></svg>

<svg version="1.1" xmlns="http://www.w3.org/2000/svg" xmlns:xlink="http://www.w3.org/1999/xlink" viewBox="0 0 128 128">
<path fill="#F34F29" d="M124.742,58.378L69.625,3.264c-3.172-3.174-8.32-3.174-11.497,0L46.685,14.71l14.518,14.518
	c3.375-1.139,7.243-0.375,9.932,2.314c2.703,2.706,3.462,6.607,2.293,9.993L87.42,55.529c3.385-1.167,7.292-0.413,9.994,2.295
	c3.78,3.777,3.78,9.9,0,13.679c-3.78,3.78-9.901,3.78-13.683,0c-2.842-2.844-3.545-7.019-2.105-10.521L68.578,47.933l-0.002,34.341
	c0.922,0.455,1.791,1.063,2.559,1.828c3.779,3.777,3.779,9.898,0,13.683c-3.779,3.777-9.904,3.777-13.679,0
	c-3.778-3.784-4.088-9.905-0.311-13.683C58.079,83.169,59,82.464,60,81.992V47.333c-1-0.472-1.92-1.172-2.856-2.111
	c-2.861-2.86-3.396-7.06-1.928-10.576L40.983,20.333L3.229,58.123c-3.175,3.177-3.155,8.325,0.02,11.5l55.126,55.114
	c3.173,3.174,8.325,3.174,11.503,0l54.86-54.858C127.913,66.703,127.916,61.552,124.742,58.378z"/>
</svg>
